storage/app/icons/phosphoricons/regular/cube-focus.svg

<svg xmlns="http://www.w3.org/2000/svg" fill="currentColor" viewBox="0 0 256 256"><path d="M232 48v40a8 8 0 0 1-16 0V56h-32a8 8 0 0 1 0-16h40a8 8 0 0 1 8 8M72 200H40v-32a8 8 0 0 0-16 0v40a8 8 0 0 0 8 8h40a8 8 0 0 0 0-16m152-40a8 8 0 0 0-8 8v32h-32a8 8 0 0 0 0 16h40a8 8 0 0 0 8-8v-40a8 8 0 0 0-8-8M32 96a8 8 0 0 0 8-8V56h32a8 8 0 0 0 0-16H32a8 8 0 0 0-8 8v40a8 8 0 0 0 8 8m156 71-56 32a8 8 0 0 1-7.94 0L68 167a8 8 0 0 1-4-7V96a8 8 0 0 1 4-7l56-32a8 8 0 0 1 7.94 0l56 32a8 8 0 0 1 4 7v64a8 8 0 0 1-3.94 7M88.12 96 128 118.79 167.88 96 128 73.21ZM80 155.36l40 22.85v-45.57l-40-22.85Zm96 0v-45.57l-40 22.85v45.57Z"/></svg>

<svg xmlns="http://www.w3.org/2000/svg" viewBox="0 0 256 256" fill="currentColor"><path d="M232,48V88a8,8,0,0,1-16,0V56H184a8,8,0,0,1,0-16h40A8,8,0,0,1,232,48ZM72,200H40V168a8,8,0,0,0-16,0v40a8,8,0,0,0,8,8H72a8,8,0,0,0,0-16Zm152-40a8,8,0,0,0-8,8v32H184a8,8,0,0,0,0,16h40a8,8,0,0,0,8-8V168A8,8,0,0,0,224,160ZM32,96a8,8,0,0,0,8-8V56H72a8,8,0,0,0,0-16H32a8,8,0,0,0-8,8V88A8,8,0,0,0,32,96ZM188,167l-56,32a8,8,0,0,1-7.94,0L68,167A8,8,0,0,1,64,160V96a8,8,0,0,1,4-7l56-32a8,8,0,0,1,7.94,0l56,32a8,8,0,0,1,4,7v64A8,8,0,0,1,188,167ZM88.12,96,128,118.79,167.88,96,128,73.21ZM80,155.36l40,22.85V132.64L80,109.79Zm96,0V109.79l-40,22.85v45.57Z"/></svg>
